X:3695
L:1/8
M:2/4
K:F
 f/g/ | af fd | cA AF | A/B/c/d/ cf | g3 f/g/ | af fd | cA AF | cf g>a | faf || !fermata!f/g/ | 
 aa a>b | gg ga | ff fg | e^c AA | de fg | af db | af ea | d3!D.C.! || c | f a2 g/f/ | 
 e/d/ d2 b/a/ | g/f/e/d/ cd/e/ | f/e/f/g/ a/c/d/e/ | f a2 g/f/ | e/d/ d2 b/a/ | 
 g/f/e/d/ =B/c/d/e/ | faf!D.C.! ||

